X:17
T:L'esprit de Dieu - K35
C:L.Deiss
M:6/8
K:Em
B,|B,2D D2D|EEE B,3-|B,2E E2G|G3 AAA|F3- F2G|G2B B3|
BAG EEE|G2G A2A|"MiM"B3- B2E|E2D B,B,D|E3 G2G|AGA BBA|G2G AAA|
E3- E2z|DDD A2A|ccc AGA|B3 B2G|ABA E2C|GGG E3-|E2z z2||
